X: 101
M:6/8
L:1/8
K:Dmix %D Minor?
"D MINOR"K(E/F/)|AFD DEF|A2G ABc|AGE cEE|ECD EFG|\
KA|d2e =f2d|e2d dcA|AGE cEE|GAG GAB|\
d2e =f2d|e2d dcA|GFE cEE|EDD D2:|


